src/assets/logos/css3.svg

<svg width="89" height="100" viewBox="0 0 89 100" fill="none" xmlns="http://www.w3.org/2000/svg">
<path d="M88.1749 0L80.142 89.9895L44.0335 100L8.02445 90.0036L0 0H88.1749Z" fill="#264DE4"/>
<path d="M73.2648 84.2596L80.1295 7.35938H44.0874V92.3487L73.2648 84.2596Z" fill="#2965F1"/>
<path d="M18.396 40.7402L19.3854 51.7787H44.0876V40.7402H18.396Z" fill="#EBEBEB"/>
<path d="M44.0875 18.3975H44.0493H16.408L17.4114 29.4362H44.0875V18.3975Z" fill="#EBEBEB"/>
<path d="M44.0874 80.8931V69.4083L44.039 69.4212L31.7453 66.1016L30.9594 57.2979H24.9856H19.8784L21.4249 74.63L44.0366 80.9072L44.0874 80.8931Z" fill="#EBEBEB"/>
<path d="M57.6421 51.7783L56.3608 66.0945L44.0493 69.4174V80.9017L66.679 74.6299L66.845 72.7649L69.439 43.704L69.7083 40.7398L71.7011 18.3975H44.0493V29.4362H59.6038L58.5994 40.7398H44.0493V51.7783H57.6421Z" fill="white"/>
</svg>

<svg width="89" height="100" fill="none" xmlns="http://www.w3.org/2000/svg"><path d="m88.175 0-8.033 89.99L44.034 100l-36.01-9.996L0 0h88.175z" fill="#264DE4"/><path d="m73.265 84.26 6.864-76.9H44.087v84.989l29.178-8.09z" fill="#2965F1"/><path d="m18.396 40.74.99 11.039h24.702V40.74H18.396zM44.087 18.398H16.409l1.003 11.038h26.676V18.398zM44.087 80.893V69.408l-.048.013-12.294-3.32-.786-8.803H19.878l1.547 17.332 22.612 6.277.05-.014z" fill="#EBEBEB"/><path d="m57.642 51.778-1.281 14.316-12.312 3.323v11.485l22.63-6.272.166-1.865 2.594-29.061.27-2.964L71.7 18.397H44.05v11.04h15.555L58.599 40.74H44.05v11.038h13.593z" fill="#fff"/></svg>
